X:95
T:Waltz
O:No 95 Wm Clarke MS  Feltwell, Norfolk
I:abc2nwc
M:3/4
L:1/8
K:F
a2|ag ba gf|fe gf ed|cd ef ge|fg ab c'2|
ag ba gf|fe gf ed|cd ef ge|f2z2:|
|:cd|ca gf ef|f2e2d'c'|c'b ag fe|fe fa cf|
ca gf ef|f2e2d'c'|c'b ag fe|f4:|

